packages/core/src/svgs/tokens/mono/TAKI.svg

<svg width="24" height="24" viewBox="0 0 24 24" fill="none" xmlns="http://www.w3.org/2000/svg">
<path d="M3.70643 2.8875C3.82927 2.62417 4.02422 2.40103 4.26868 2.24395C4.51314 2.08687 4.79712 2.00229 5.08768 2H20.4564C21.6002 2 22.3502 3.24999 21.8315 4.31249L19.5065 9.14378C19.2563 9.65624 18.8065 10.0937 18.2501 10.1249H15.5439L12.5751 20.8437C12.489 21.1721 12.2973 21.463 12.0297 21.6719C11.7621 21.8809 11.4334 21.9961 11.0939 22H6.89394C5.88143 22 5.14394 21 5.40644 19.9875C6.15732 17.0901 6.97419 14.2102 7.85644 11.3499C8.5064 9.33118 10.5815 8.87501 12.5626 8.87501H13.9251C13.5627 8.42497 12.9377 8.24997 12.0627 8.24997H3.54393C2.40019 8.24997 1.65019 7.15 2.16894 6.0875L3.70643 2.8875ZM15.5439 8.87501H17.8251C17.9511 8.87458 18.0739 8.83622 18.1776 8.76491C18.2813 8.69345 18.3611 8.59239 18.4064 8.47499L20.119 4.1C20.1554 4.00545 20.1684 3.90346 20.1566 3.8028C20.1449 3.70215 20.1089 3.60586 20.0517 3.52221C19.9946 3.43856 19.9178 3.37007 19.8283 3.32265C19.7388 3.27524 19.639 3.2503 19.5377 3.24999H5.50644C5.38305 3.25062 5.26259 3.28774 5.16027 3.3567C5.05794 3.42565 4.97832 3.52336 4.93143 3.6375L3.90019 6.13749C3.86128 6.23218 3.84624 6.33498 3.85636 6.43684C3.86649 6.53871 3.90149 6.63652 3.95827 6.72168C4.01505 6.80687 4.09189 6.87679 4.18201 6.92531C4.27215 6.97385 4.37282 6.99948 4.47518 6.99999H12.0627C14.0002 6.99999 15.1126 7.9812 15.5439 8.87501ZM13.8751 10.1249H12.3126C11.019 10.1249 9.75021 10.5 9.31898 11.85C8.56896 14.1937 7.64393 17.8312 7.09393 19.95C6.99394 20.3438 7.29393 20.7499 7.70643 20.7499H10.6064C10.894 20.7499 11.1377 20.5374 11.2126 20.2687L13.8751 10.1249Z" fill="white"/>
</svg>

<svg xmlns="http://www.w3.org/2000/svg" width="24" height="24" fill="none" viewBox="0 0 24 24">
    <path fill="#fff" d="M3.706 2.888A1.54 1.54 0 0 1 5.088 2h15.368c1.144 0 1.894 1.25 1.375 2.312l-2.325 4.832c-.25.512-.7.95-1.256.98h-2.706l-2.969 10.72A1.55 1.55 0 0 1 11.094 22h-4.2c-1.013 0-1.75-1-1.488-2.012q1.127-4.347 2.45-8.638c.65-2.019 2.726-2.475 4.707-2.475h1.362c-.362-.45-.987-.625-1.862-.625h-8.52C2.4 8.25 1.65 7.15 2.17 6.088zm11.838 5.987h2.281a.63.63 0 0 0 .581-.4L20.12 4.1a.625.625 0 0 0-.581-.85H5.506a.63.63 0 0 0-.575.388l-1.03 2.5A.625.625 0 0 0 4.474 7h7.588c1.937 0 3.05.981 3.48 1.875m-1.669 1.25h-1.562c-1.294 0-2.563.375-2.994 1.725-.75 2.344-1.675 5.981-2.225 8.1-.1.394.2.8.612.8h2.9a.65.65 0 0 0 .607-.481z"/>
</svg>
